src/icons/eye-disabled.svg

<svg xmlns="http://www.w3.org/2000/svg" width="512" height="512" viewBox="0 0 512 512">
    <path d="M347.4 175.4l54.3-54.4-17.1-17.2-58.9 58.9c-21.1-10.6-44.2-17.2-69.7-17.2-62.2 0-110.6 39.6-170 104 26.5 28.4 50.7 55.1 78.4 74.5l-54.1 54.1 17.1 17.1 58.3-58.3c20.6 10.4 43.3 16.6 70.3 16.6 75.9 0 131.6-62 170-102.8-21.2-25.9-47.4-54.6-78.6-75.3zm-159.4 74c0-38.2 30.5-69.3 68-69.3 14.7 0 28.3 4.7 39.3 12.9l-38.5 38.5c-.5-2-.8-4.1-.8-6.3 0-5.9 2.2-11.5 5.7-15.7-1.9-.3-3.8-.4-5.7-.4-21.9 0-39.7 18.2-39.7 40.5 0 6.5 1.5 12.8 4.2 18.2l-20.7 20.7c-7.4-11.1-11.8-24.6-11.8-39.1zm68 69.4c-14.7 0-28.3-4.7-39.3-12.9l20.8-20.8c5.5 3.1 11.8 4.7 18.5 4.7 21.9 0 39.7-18.2 39.7-40.5 0-1.7-.1-3.5-.3-5.2-4.1 3.3-9.4 5.2-15 5.2-2.2 0-4.2-.3-6.3-.9l38.1-38.1c7.4 11.1 11.8 24.5 11.8 39 0 38.4-30.5 69.5-68 69.5z"/>
</svg>

<?xml version="1.0" encoding="UTF-8"?>
<svg width="512px" height="512px" viewBox="0 0 512 512" version="1.1" xmlns="http://www.w3.org/2000/svg" xmlns:xlink="http://www.w3.org/1999/xlink">
    <!-- Generator: Sketch 62 (91390) - https://sketch.com -->
    <title>eye-disabled</title>
    <desc>Created with Sketch.</desc>
    <g id="eye-disabled" stroke="none" stroke-width="1" fill="none" fill-rule="evenodd">
        <path d="M347.4,175.4 L401.7,121 L384.6,103.8 L325.7,162.7 C304.6,152.1 281.5,145.5 256,145.5 C193.8,145.5 145.4,185.1 86,249.5 C112.5,277.9 136.7,304.6 164.4,324 L110.3,378.1 L127.4,395.2 L185.7,336.9 C206.3,347.3 229,353.5 256,353.5 C331.9,353.5 387.6,291.5 426,250.7 C404.8,224.8 378.6,196.1 347.4,175.4 Z M188,249.4 C188,211.2 218.5,180.1 256,180.1 C270.7,180.1 284.3,184.8 295.3,193 L256.8,231.5 C256.3,229.5 256,227.4 256,225.2 C256,219.3 258.2,213.7 261.7,209.5 C259.8,209.2 257.9,209.1 256,209.1 C234.1,209.1 216.3,227.3 216.3,249.6 C216.3,256.1 217.8,262.4 220.5,267.8 L199.8,288.5 C192.4,277.4 188,263.9 188,249.4 L188,249.4 Z M256,318.8 C241.3,318.8 227.7,314.1 216.7,305.9 L237.5,285.1 C243,288.2 249.3,289.8 256,289.8 C277.9,289.8 295.7,271.6 295.7,249.3 C295.7,247.6 295.6,245.8 295.4,244.1 C291.3,247.4 286,249.3 280.4,249.3 C278.2,249.3 276.2,249 274.1,248.4 L312.2,210.3 C319.6,221.4 324,234.8 324,249.3 C324,287.7 293.5,318.8 256,318.8 L256,318.8 Z" id="Shape" fill="#000000" fill-rule="nonzero"></path>
    </g>
</svg>
